!!!!SEGMENT: pl-kc--40102-iii-1-saf--001-035_zielenski-mikolaj--offertoria-totius-anni-in-festo-omnium-sanctorum-iustorum-animae.krn
!!!cenid: 16xx:1514
!!!COM: Zieleński, Mikołaj
!!!COM-rismid: pe30013481
!!!CDT:
!!!CNT: Polish
!!!OTL: Offertoria totius anni
!!!OMV: 035
!!!PDT: 1611
!!!AGN:
!!!SMS-siglum: PL-Kc
!!!SMS-shelfmark: 40102 III/1 Saf.
!!!SMS-shelfwork: 001-035 W
!!!SMS-variant:
!!!SMS-altvar:
!!!NIFC-rismid: 990069886
!!!URL-scan: https://cyfrowe.mnk.pl/dlibra/publication/24235/edition/23926/content?ref=desc
!!!ONB-nifc: UWAGA: str. 32-33. Uwaga: W xml metrum 2/1 do źródłowego C| i odpowiednio 3/1 do 3/2
**kern	**kern	**kern	**kern
*group1	*group1	*group1	*group1
*part4	*part3	*part2	*part1
*staff4	*staff3	*staff2	*staff1
*I""Organo	*I""Organo	*I""Organo	*I""Organo
*I''org	*I''org	*I''org	*I''org
*Iorg	*Iorg	*Iorg	*Iorg
*ICklav	*ICklav	*ICklav	*ICklav
*clefF5	*clefC1	*clefF4	*clefC1
*k[]	*k[]	*k[]	*k[]
*F:	*F:	*F:	*F:
*M2/1	*M2/1	*M2/1	*M2/1
*met(C|)	*met(C|)	*met(C|)	*met(C|)
=1	=1	=1	=1
!	!	!LO:TX:a:t=Iuſtorum animae.	!LO:TX:a:t=In feſto Omnium Sanćtorum.   A 8.
00r	00r	1c	1g
.	.	1C	1.cc
=2-	=2-	=2-	=2-
.	.	1.G	.
.	.	.	2b\
.	.	.	2a\
.	.	2F\	2a\
=3	=3	=3	=3
00r	00r	2E\	2.g/
.	.	2E\	.
.	.	.	4g/
.	.	2.D/	2a\
.	.	.	2f/
.	.	4D/	.
=4-	=4-	=4-	=4-
.	.	2E\	4e/
.	.	.	4f/
.	.	2C/	4g/
.	.	.	4a\
.	.	2.G\	4b\
.	.	.	4cc\
.	.	.	[y2dd\
.	.	4F\	.
=5	=5	=5	=5
!	!	!	!LO:N:xstem:cue
0r	0r	2E\	4dd\]
.	.	.	4cc\
.	.	4D/	1cc
.	.	4C/	.
.	.	1G	.
.	.	.	4b\
.	.	.	4a\
=6-	=6-	=6-	=6-
1GG	1d	1G	2b\
.	.	.	2b\
[y1C	2e/	1C	1cc
.	2g/	.	.
=7	=7	=7	=7
!LO:N:xstem:cue:vis=4	!	!	!
2C\]	1.cc	00r	00r
2BB/	.	.	.
2AA/	.	.	.
2GG/	2b\	.	.
=8-	=8-	=8-	=8-
2FF/	2a\	.	.
2FF/	2a\	.	.
1C	2g/	.	.
.	2cc\	.	.
=9	=9	=9	=9
2r	2dd\	0r	0r
2GG/	2b\	.	.
2AA/	2.cc\	.	.
1FF	.	.	.
.	4b\	.	.
=10-	=10-	=10-	=10-
.	4a\	1r	1r
.	4g/	.	.
2GG/	2.g/	.	.
1D	.	2r	2r
!	!LO:TX:a:t=P:problem:# above po nucie	!	!
.	8f#X/	.	.
.	8e/	.	.
.	2f#/	2D/	2dd\
=11	=11	=11	=11
1GG	1g	4D/	1.dd
.	.	4C/	.
.	.	4BB/	.
.	.	4AA/	.
2r	2r	2GG/	.
2GG/	2g/	2D/	2b\
=12-	=12-	=12-	=12-
1.C	2.g/	2C/	2cc\
.	.	2C/	2cc\
.	4f/	.	.
.	2e/	1G	1g
2BB/	2g/	.	.
=13	=13	=13	=13
2AA/	2a\	2r	2r
2AA/	2a\	2A\	2cc\
1GG	1b	2D/	2dd\
.	.	2G\	2b\
=14-	=14-	=14-	=14-
2r	2r	4C/	2.cc\
.	.	4D/	.
2C\	2g/	4E\	.
.	.	8D\	4b\
.	.	8E\	.
2D\	2d/	2F#X\	4a\
.	.	.	4d/
2BB/	2g/	2G\	[y2dd\
=15	=15	=15	=15
*lig	*	*	*
!	!	!	!LO:N:xstem:cue
1C	0g	2E\	4dd\]
.	.	.	4cc\
.	.	4D/	1cc
.	.	4C/	.
1.GG	.	1.D	.
.	.	.	4b\
.	.	.	4a\
*Xlig	*	*	*
=16-	=16-	=16-	=16-
.	1g	.	2b\
2GG/	.	2D/	2b\
1C	1g	2.C/	2cc\
.	.	.	2f/
.	.	4C/	.
=17	=17	=17	=17
00r	00r	2F\	2a\
.	.	4D/	4b\
.	.	2A\	2cc\
.	.	4A\	4cc\
.	.	1G	1b
=18-	=18-	=18-	=18-
.	.	.	.
.	.	2E\	2cc\
.	.	2F\	2a\
.	.	2C/	2g/
=19	=19	=19	=19
0r	0r	4D/	1f
.	.	4E\	.
.	.	4F\	.
.	.	4D/	.
.	.	2.A\	2e/
.	.	.	2.a\
.	.	4AA/	.
=20-	=20-	=20-	=20-
1r	1r	2C/	.
.	.	.	4a\
.	.	2GG/	4g/
.	.	.	2g/
2r	2r	1D	.
.	.	.	8f#X/
.	.	.	8e/
2D\	2a\	.	2f#/
=21	=21	=21	=21
2G\	2b\	0GG	0g
2E\	2cc\	.	.
2D\	2dd\	.	.
2GG/	2dd\	.	.
=22-	=22-	=22-	=22-
2.C\	2.cc\	0r	0r
4C\	4ee\	.	.
2BB/	2dd\	.	.
!	!LO:SIC:v:t=błędna wysokość custos	!	!
*custos:GG	*custos:e	*custos:AA	*custos:ee
2C\	2cc\	.	.
!!LO:LB:g=original
=23	=23	=23	=23
4GG/	1b	0r	0r
4AA/	.	.	.
4BB/	.	.	.
4GG/	.	.	.
2.D\	2a\	.	.
.	2a\	.	.
4D\	.	.	.
=24-	=24-	=24-	=24-
2AA/	2cc#X\	1r	1r
2DD/	4cc#\	.	.
.	2dd\	.	.
1AA	.	2r	2r
.	8cc#X\	.	.
.	8b\	.	.
.	2cc#\	2AA/	2ee\
=25	=25	=25	=25
2.DD/	2.dd\	1D	2ff\
.	.	.	2.dd\
4DD/	4a\	.	.
2GG/	2b\	2.GG/	.
.	.	.	4dd\
2.CC/	2.cc\	.	2ee\
.	.	4GG/	.
=26-	=26-	=26-	=26-
.	.	1C	1.cc
4CC/	4cc\	.	.
2FF/	2a\	.	.
2.DD/	2a\	2.D/	.
.	2dd\	.	2ff\
4DD/	.	4D/	.
=27	=27	=27	=27
2DD/	2dd\	2D/	2ff\
2EE/	4cc\	2GG/	1ee
.	4b\	.	.
2.FF/	4a\	2.AA/	.
.	4g/	.	.
*	*	*	*lig
.	1a	.	1dd\
4GG/	.	4BB/	.
=28-	=28-	=28-	=28-
*	*	*lig	*
4AA/	.	1C	.
4BB/	.	.	.
*	*	*	*col
4C\	2g/	.	2.cc\
4DD/	.	.	.
1GG	1g	1GG	.
*	*	*	*Xlig
.	.	.	8b\
*	*	*	*Xcol
.	.	.	8a\
.	.	.	2b\
*	*	*Xlig	*
=29	=29	=29	=29
1CC	1g	2.C/	2cc\
.	.	.	2.ee\
.	.	4C/	.
0r	0r	2C/	.
.	.	.	4ee\
.	.	2BB/	2dd\
=30-	=30-	=30-	=30-
.	.	2C/	2cc\
.	.	2D/	2a\
2r	2r	1GG	1b
[y2G\	[y2g/	.	.
=31	=31	=31	=31
!LO:N:xstem:cue	!LO:N:xstem:cue	!	!
4G\]	4g/]	0r	0r
4G\	4g/	.	.
2F\	2a\	.	.
2E\	2b\	.	.
2E\	2cc#X\	.	.
=32-	=32-	=32-	=32-
1D	1dd	2r	2r
.	.	2.D/	2.a\
1r	1r	.	.
.	.	4D/	4a\
.	.	2G\	2b\
=33	=33	=33	=33
1r	1r	2F\	2cc\
.	.	2D/	2dd\
2r	2r	1C	1ee
2.C\	2.g/	.	.
=34-	=34-	=34-	=34-
.	.	0r	0r
4C\	4g/	.	.
2BB/	2g/	.	.
2AA/	2a\	.	.
2AA/	2a\	.	.
=35	=35	=35	=35
2.GG/	2d/	0r	0r
.	2dd\	.	.
4GG/	.	.	.
2C\	2cc\	.	.
4AA/	4cc\	.	.
4.BB/	4.b\	.	.
=36-	=36-	=36-	=36-
.	.	1r	1r
8BB/	8b\	.	.
4GG/	4b\	.	.
2D\	2a\	.	.
1GG	1g	2r	2r
.	.	2G\	2dd\
=37	=37	=37	=37
00r	00r	2D/	2ff\
.	.	4F\	4cc\
.	.	4.C/	4.ee\
.	.	8C/	8ee\
.	.	4D/	2dd\
.	.	4.E\	.
.	.	.	2cc\
.	.	8F\	.
=38-	=38-	=38-	=38-
.	.	2G\	.
.	.	.	8b\
.	.	.	8a\
.	.	2GG/	2b\
.	.	1C	1cc
=39	=39	=39	=39
*M3/2	*M3/2	*M3/2	*M3/2
00.r	00.r	1.G	1.dd
.	.	2G\	2dd\
.	.	1G	1b
=40-	=40-	=40-	=40-
.	.	1.C	1.cc
.	.	2C/	2cc\
.	.	1C	1g
=41-	=41-	=41-	=41-
0.r	0.r	0G	0b
.	.	1GG	1b
=42-	=42-	=42-	=42-
1.D	1.a	0.D	0.a
2D\	2a\	.	.
1D	1f#X	.	.
=43	=43	=43	=43
1.BB	1.g	00.r	00.r
2BB/	2g/	.	.
1C	1e	.	.
=44-	=44-	=44-	=44-
2AA/	0a	.	.
2BB/	.	.	.
2C\	.	.	.
2AA/	.	.	.
1E	1g#X	.	.
=45-	=45-	=45-	=45-
0.AA	0.a	0.r	0.r
=46-	=46-	=46-	=46-
0.r	0.r	1.A	1.ee
.	.	2A\	2ee\
.	.	1A	1cc#X
=47	=47	=47	=47
1.DD	1.a	1.D	1.dd
2DD/	2a\	2D/	2dd\
1DD	1dd	1D	1a
=48-	=48-	=48-	=48-
1.GG	1.dd	1.GG	1.b
2GG/	2dd\	2GG/	2b\
1CC	1cc	1C	1cc
=49-	=49-	=49-	=49-
0FF	0a	0FF	0cc
1DD	1b	1FF	1dd
=50-	=50-	=50-	=50-
0.CC	0.cc	0.C	0.ee
=51	=51	=51	=51
0.r	0.r	1F	1cc
.	.	1F	1cc
.	.	1F	1cc
=52-	=52-	=52-	=52-
1DD	1dd	1.D	1.ff
1DD	1dd	.	.
.	.	2D/	2ff\
1DD	1dd	1D	1ff
=53-	=53-	=53-	=53-
1.GG	1.b	1GG	1dd
.	.	1G	1dd
2GG/	2b\	.	.
1GG	1b	1D	1dd
=54-	=54-	=54-	=54-
1CC	1cc	0C	0ee
1CC	1cc	.	.
*custos:FF	*custos:a	*custos:C	*custos:cc
1CC	1cc	1C	1ee
!!LO:PB:g=original
=55	=55	=55	=55
*M2/1	*M2/1	*M2/1	*M2/1
*met(C|)	*met(C|)	*met(C|)	*met(C|)
2.FF/	2.a\	1C	2cc\
.	.	.	2.ff\
4FF/	4a\	.	.
*	*	*lig	*
1DD	1a	1D	.
.	.	.	4ee\
.	.	.	2.dd\
=56-	=56-	=56-	=56-
1AA	1a	1E	.
.	.	.	8cc#X\
.	.	.	8b\
.	.	.	2cc#\
*	*	*Xlig	*
1DD	1a	2D/	2dd\
.	.	[y2D/	[y2ff\
=57	=57	=57	=57
!	!	!LO:N:xstem:cue	!LO:N:xstem:cue
0r	0r	4D/]	4ff\]
.	.	4A\	4ee\
.	.	2B\	2dd\
.	.	4F\	4cc\
.	.	2F\	2cc\
.	.	4D/	2dd\
=58-	=58-	=58-	=58-
1r	1r	1G	.
.	.	.	2cc\
.	.	.	4b\
2r	2r	1C	1cc
[2C\	[2cc\	.	.
=59	=59	=59	=59
4C\]	4cc\]	0r	0r
4GG/	4b\	.	.
2AA/	2a\	.	.
4E\	4g/	.	.
2E\	2g/	.	.
4C\	[4a\	.	.
=60-	=60-	=60-	=60-
1D	4a\]	1r	1r
.	2g/	.	.
.	4f#X/	.	.
1GG	1g	2r	2r
.	.	[y2G\	[y2dd\
=61	=61	=61	=61
!	!	!LO:N:xstem:cue	!LO:N:xstem:cue
1r	1r	4G\]	4dd\]
.	.	4F\	4dd\
.	.	2E\	2ee\
2r	2r	1D	1a
2.D\	2.a\	.	.
=62-	=62-	=62-	=62-
.	.	1r	1r
4C\	4a\	.	.
2BB/	2b\	.	.
2AA/	2e/	4r	4r
.	.	2AA/	2cc\
2r	2r	.	.
.	.	4BB/	[<4b\
=63	=63	=63	=63
1r	1r	4.C/	4b\]
.	.	.	2a\
.	.	8D/	.
.	.	2E\	.
.	.	.	4g#X/
2r	2r	2AA/	2a\
1FF/	2.a\	4AA/	1cc
.	.	4BB/	.
=64-	=64-	=64-	=64-
.	.	4C/	.
.	4b\	4D/	.
2EE/	2cc\	2E\	2cc\
1DD	4a\	2F\	1dd
.	4g\	.	.
.	4a\	2F\	.
.	4b\	.	.
=65	=65	=65	=65
2.AA/	2.cc\	2.E\	2.ee\
2FF/	2cc\	2AA/	2ff\
4FF/	4cc\	4AA/	4cc\
2CC/	2cc\	2C/	2ee\
=66-	=66-	=66-	=66-
4GG/	4b\	4GG/	4dd\
2GG/	2b\	2BB/	2dd\
4GG/	4cc\	4BB/	4dd\
1CC	2cc\	1C	2ee\
.	2g/	.	[<2cc\
=67	=67	=67	=67
2.FF/	2.a\	1.AA	2cc\]
.	.	.	2.ff\
4GG/	4b\	.	.
2AA/	2cc\	.	.
.	.	.	4ee\
2DD/	4dd\	2AA/	[2dd\
.	4cc\	.	.
=68-	=68-	=68-	=68-
2GG/	4b\	2BB/	2dd\]
.	4a\	.	.
2CC/	2g/	2C/	1cc
[>1GG	[>1g	[>1D	.
.	.	.	4b\
.	.	.	4a\
=69	=69	=69	=69
1GG]	1g]	1D]	2b\
.	.	.	2b\
2CC/	2g/	2C/	2cc\
1FF	2.a\	1C	2.cc\
=70-	=70-	=70-	=70-
.	.	.	.
.	4b\	.	4dd\
2EE/	2cc\	2C/	2ee\
1FF	2.a\	1C	2cc\
.	.	.	1ff
.	4b\	.	.
=71-	=71-	=71-	=71-
0CCl	0ccl	0Cl	.
.	.	.	4ee\
.	.	.	4dd\
.	.	.	1eel
==	==	==	==
*-	*-	*-	*-
!!!system-decoration: *
!!!RDF**kern: > = above
!!!RDF**kern: < = below
!!!RDF**kern: l = terminal long
!!!ENC: Filip Voros
!!!END: 2021-12-15
!!!ENC: Andrzej Kubiczek
!!!END: 2021-12-20
